X:467
T:Miss Eleanora Campbell of Kilbride’s Reel. RH.467
R:strathspey
S:Rev.R.Harrison’s MS,c1815,Cumbria
O:England
A:Temple Sowerby,Cumbria
Z:vmp.Simon Wilson. Review PJH, 2008.
M:C
L:1/8
Q:2/4=70
K:D
g|f<dd>A F>GA>c|BA=cG E/F/G/E/ Dg|\
f>dd>A F>GAf|gea>g fdd:|!
|:g|adfd Adfa|g=cec Gceg|\
a>dfd f/g/a/g/ fd|ge a/b/a/g/ fddg|!
adfd Adfa|g<=ce>c G>ce>g|\
a<fe<g f>de>c|dB A/B/A/G/ FDD:|

